coreui/free/cil-bowling.svg

<svg xmlns="http://www.w3.org/2000/svg" viewBox="0 0 512 512">
  <path fill="var(--ci-primary-color, currentColor)" d="M312,128a183.645,183.645,0,0,0-139.789,64.5c-1.705-3.805-3.468-7.589-5.325-11.339l11.369-90.005a66.782,66.782,0,1,0-132.51,0l11.369,90.005A323.1,323.1,0,0,0,38.356,420.972L61.843,496H162.157l17.6-56.207A183.469,183.469,0,0,0,312,496c101.458,0,184-82.542,184-184S413.458,128,312,128ZM85.91,59.78a34.781,34.781,0,0,1,60.6,27.361L136.294,168H87.706L77.493,87.141A34.8,34.8,0,0,1,85.91,59.78ZM155.1,411.412,138.643,464H85.357L68.9,411.412A289.239,289.239,0,0,1,83.562,200h56.876q5.58,11.776,10.075,23.879a183.66,183.66,0,0,0,5.278,185.244C155.559,409.886,155.343,410.651,155.1,411.412ZM312,464c-83.813,0-152-68.187-152-152s68.187-152,152-152,152,68.187,152,152S395.813,464,312,464Z" class="ci-primary"/>
  <circle cx="312" cy="224" r="24" fill="var(--ci-primary-color, currentColor)" class="ci-primary"/>
  <circle cx="384" cy="272" r="24" fill="var(--ci-primary-color, currentColor)" class="ci-primary"/>
  <circle cx="304" cy="304" r="24" fill="var(--ci-primary-color, currentColor)" class="ci-primary"/>
</svg>

<svg viewBox="0 0 512 512" xmlns="http://www.w3.org/2000/svg"><g><path d="M312 128v-.001c-53.8-.02-104.89 23.56-139.79 64.5 -1.71-3.81-3.47-7.59-5.33-11.34l11.369-90.01v0c4.62-36.6-21.3-70.01-57.89-74.63 -36.6-4.63-70.01 21.29-74.63 57.88 -.71 5.56-.71 11.18 0 16.74l11.369 90h0c-36.89 74.54-43.61 160.43-18.76 239.81l23.48 75.02h100.31l17.6-56.21v-.001c34.6 35.93 82.35 56.23 132.243 56.2 101.45 0 184-82.55 184-184 0-101.46-82.55-184-184-184ZM85.91 59.78H85.9c12.7-14.42 34.67-15.8 49.09-3.1 8.64 7.61 12.95 19.02 11.5 30.45l-10.22 80.85h-48.59l-10.22-80.86v0c-1.25-9.91 1.81-19.88 8.41-27.37ZM155.1 411.41l-16.46 52.58H85.35L68.89 411.4h-.001c-22.04-69.79-16.8-145.34 14.66-211.42h56.87q5.58 11.77 10.07 23.87v-.001c-31.81 58.17-29.79 128.97 5.27 185.24 -.24.76-.45 1.52-.7 2.28Zm156.9 52.58c-83.82 0-152-68.19-152-152 0-83.82 68.18-152 152-152 83.81 0 152 68.18 152 152 0 83.81-68.19 152-152 152Z"/><path d="M312 200a24 24 0 1 0 0 48 24 24 0 1 0 0-48Z"/><path d="M384 248a24 24 0 1 0 0 48 24 24 0 1 0 0-48Z"/><path d="M304 280a24 24 0 1 0 0 48 24 24 0 1 0 0-48Z"/></g></svg>
